src/scalable/apps/utilities-x-terminal.svg

<?xml version="1.0" encoding="UTF-8"?>
<!-- Created with Inkscape (http://www.inkscape.org/) -->
<svg width="64" height="64" version="1.1" viewBox="0 0 16.933 16.933" xmlns="http://www.w3.org/2000/svg" xmlns:cc="http://creativecommons.org/ns#" xmlns:dc="http://purl.org/dc/elements/1.1/" xmlns:rdf="http://www.w3.org/1999/02/22-rdf-syntax-ns#" xmlns:xlink="http://www.w3.org/1999/xlink">
 <defs>
  <filter id="filter2761" x="-.024" y="-.024" width="1.048" height="1.048" color-interpolation-filters="sRGB">
   <feGaussianBlur stdDeviation="0.14552168"/>
  </filter>
  <filter id="filter924" x="-.060054" y="-.059946" width="1.1201" height="1.1199" color-interpolation-filters="sRGB">
   <feGaussianBlur stdDeviation="0.2078715"/>
  </filter>
 </defs>
 <metadata>
  <rdf:RDF>
   <cc:Work rdf:about="">
    <dc:format>image/svg+xml</dc:format>
    <dc:type rdf:resource="http://purl.org/dc/dcmitype/StillImage"/>
    <dc:title/>
   </cc:Work>
  </rdf:RDF>
 </metadata>
 <path d="m10.709 1.05c4.405 0 5.0345 0.67282 5.0345 5.388v3.7761c0 4.7152-0.62954 5.388-5.0345 5.388h-4.4832c-4.405 0-5.0346-0.6728-5.0346-5.388v-3.7761c0-4.7152 0.62954-5.388 5.0346-5.388z" enable-background="new" fill="#141414" filter="url(#filter2761)" opacity=".3"/>
 <g>
  <g transform="matrix(1.3181 0 0 1.3181 -2.6291 -2.6396)" fill="#285ae6" filter="url(#filter924)">
   <path d="m11.198 11.399a4.1537 4.1537 0 0 1-2.7795 1.067 4.1537 4.1537 0 0 1-4.1537-4.1537 4.1537 4.1537 0 0 1 4.1537-4.1537 4.1537 4.1537 0 0 1 2.7795 1.0671"/>
   <circle cx="8.4188" cy="8.3271" r="4.1537" opacity=".2"/>
  </g>
  <path d="m10.709 1.05c4.405 0 5.0345 0.67282 5.0345 5.388v3.7761c0 4.7152-0.62954 5.388-5.0345 5.388h-4.4832c-4.405 0-5.0346-0.6728-5.0346-5.388v-3.7761c0-4.7152 0.62954-5.388 5.0346-5.388z" enable-background="new" fill="#fafafa"/>
  <path d="m3.7377 4.3486-0.18198 0.54747 1.8474 0.74102-1.8474 0.74102 0.18198 0.54747 2.3768-1.0065v-0.56406zm2.3734 3.3291v0.56712h2.8356v-0.56712z" enable-background="new" fill="#333"/>
 </g>
</svg>

<?xml version="1.0" encoding="UTF-8" standalone="no"?>
<svg
   xmlns:dc="http://purl.org/dc/elements/1.1/"
   xmlns:cc="http://creativecommons.org/ns#"
   xmlns:rdf="http://www.w3.org/1999/02/22-rdf-syntax-ns#"
   xmlns:svg="http://www.w3.org/2000/svg"
   xmlns="http://www.w3.org/2000/svg"
   xmlns:xlink="http://www.w3.org/1999/xlink"
   xmlns:sodipodi="http://sodipodi.sourceforge.net/DTD/sodipodi-0.dtd"
   xmlns:inkscape="http://www.inkscape.org/namespaces/inkscape"
   inkscape:version="1.0 (4035a4fb49, 2020-05-01)"
   sodipodi:docname="utilities-x-terminal.svg"
   id="svg26"
   viewBox="0 0 16.933 16.933"
   version="1.1"
   height="64"
   width="64">
  <sodipodi:namedview
     inkscape:current-layer="svg26"
     inkscape:window-maximized="1"
     inkscape:window-y="0"
     inkscape:window-x="0"
     inkscape:cy="43.922825"
     inkscape:cx="3.0537535"
     inkscape:zoom="4.5078057"
     showgrid="false"
     id="namedview28"
     inkscape:window-height="985"
     inkscape:window-width="1920"
     inkscape:pageshadow="2"
     inkscape:pageopacity="0"
     guidetolerance="10"
     gridtolerance="10"
     objecttolerance="10"
     borderopacity="1"
     bordercolor="#666666"
     pagecolor="#ffffff" />
  <defs
     id="defs8">
    <filter
       color-interpolation-filters="sRGB"
       height="1.048"
       width="1.048"
       y="-.024"
       x="-.024"
       id="filter2761">
      <feGaussianBlur
         id="feGaussianBlur2"
         stdDeviation="0.14552168" />
    </filter>
    <filter
       color-interpolation-filters="sRGB"
       height="1.1199"
       width="1.1201"
       y="-.059946"
       x="-.060054"
       id="filter924">
      <feGaussianBlur
         id="feGaussianBlur5"
         stdDeviation="0.2078715" />
    </filter>
    <filter
       color-interpolation-filters="sRGB"
       height="1.048"
       width="1.048"
       y="-.024"
       x="-.024"
       id="filter2761-36">
      <feGaussianBlur
         id="feGaussianBlur2-7"
         stdDeviation="0.14552168" />
    </filter>
    <linearGradient
       gradientUnits="userSpaceOnUse"
       gradientTransform="translate(58.81987,-4.9486)"
       y2="16.321"
       y1="16.321"
       x2="-16.238"
       x1="-22.655"
       id="linearGradient1174">
      <stop
         id="stop5"
         offset="0"
         stop-color="#0a82f0" />
      <stop
         id="stop7"
         offset="1"
         stop-color="#3250e6" />
    </linearGradient>
    <filter
       inkscape:collect="always"
       style="color-interpolation-filters:sRGB"
       id="filter1052"
       x="-0.048"
       width="1.096"
       y="-0.048"
       height="1.096">
      <feGaussianBlur
         inkscape:collect="always"
         stdDeviation="0.29103594"
         id="feGaussianBlur1054" />
    </filter>
    <linearGradient
       inkscape:collect="always"
       xlink:href="#linearGradient1038"
       id="linearGradient1040"
       x1="37.040939"
       y1="15.874687"
       x2="51.592735"
       y2="1.3228906"
       gradientUnits="userSpaceOnUse"
       gradientTransform="translate(-35.850338,-0.1322889)" />
    <linearGradient
       inkscape:collect="always"
       id="linearGradient1038">
      <stop
         style="stop-color:#f5f5f5;stop-opacity:1"
         offset="0"
         id="stop1034" />
      <stop
         style="stop-color:#fafafa;stop-opacity:1"
         offset="1"
         id="stop1036" />
    </linearGradient>
    <filter
       id="filter2761-3"
       x="-.024"
       y="-.024"
       width="1.048"
       height="1.048"
       color-interpolation-filters="sRGB">
      <feGaussianBlur
         stdDeviation="0.14552168"
         id="feGaussianBlur895" />
    </filter>
    <linearGradient
       id="linearGradient1195"
       x1="-9.2997"
       x2="-.93244"
       y1="32.176"
       y2="32.176"
       gradientTransform="translate(1.8475,-2.1749)"
       gradientUnits="userSpaceOnUse">
      <stop
         stop-color="#1478e6"
         offset="0"
         id="stop898" />
      <stop
         stop-color="#3c50e6"
         offset="1"
         id="stop900" />
    </linearGradient>
  </defs>
  <metadata
     id="metadata10">
    <rdf:RDF>
      <cc:Work
         rdf:about="">
        <dc:format>image/svg+xml</dc:format>
        <dc:type
           rdf:resource="http://purl.org/dc/dcmitype/StillImage" />
        <dc:title></dc:title>
      </cc:Work>
    </rdf:RDF>
  </metadata>
  <rect
     ry="3.4395156"
     y="1.1906016"
     x="1.1906018"
     height="14.551797"
     width="14.551797"
     id="rect1042"
     style="opacity:0.3;fill:#000000;fill-opacity:1;stroke-width:0.529156;stroke-linecap:round;filter:url(#filter1052)" />
  <rect
     style="fill:url(#linearGradient1040);fill-opacity:1;stroke-width:0.529156;stroke-linecap:round"
     id="rect1032"
     width="14.551797"
     height="14.551797"
     x="1.1906016"
     y="1.1906017"
     ry="3.4395156" />
  <path
     d="M 3.7377,4.3486 3.55572,4.89607 5.40312,5.63709 3.55572,6.37811 3.7377,6.92558 6.1145,5.91908 V 5.35502 Z M 6.1111,7.6777 V 8.24482 H 8.9467 V 7.6777 Z"
     enable-background="new"
     fill="#333333"
     id="path22" />
</svg>
